X: 3129
T: Mr JAMES GEORGE
Q: "Strathspey."
R: Strathspey.
%R: strathspey
B: James Kerr "Merry Melodies" v.3 p.16 #129
Z: 2016 John Chambers <jc:trillian.mit.edu>
N: The barring in bar 8 is a bit unusual; the middle group should be split.
M: C
L: 1/16
K: C
uF2 |\
(vEFG2) C3G E3Gc3G | vA3vc (AG)FE FD3D3uF |\
(EFG2) C3G E3Gc3G | Ac3 G3F EC3 C2 ::\
(uef) |\
gc3ac3 gc3ec3 |
G3c (AG)FE FD3 d2(ef) |\
[1 gc3ac3 gc3ec3 | Gc3 G3FEC3 C2 :|\
[2 g3ef3d e3cd3c | G3c AGFE Gc3 c2 |]

%%sep 1 1 500
%%sep 1 1 500

